public/assets/img/precast-concrete/building-systems/bsys5.svg

<svg id="es1iBGm2ZkI1" xmlns="http://www.w3.org/2000/svg" xmlns:xlink="http://www.w3.org/1999/xlink" viewBox="0 0 36 52" shape-rendering="geometricPrecision" text-rendering="geometricPrecision" project-id="46cd3670d1f04c198a74c7cd1bc2a67d" export-id="eedf4c35149a42f49ef1d7568b33a003" cached="false">
<style><![CDATA[
#es1iBGm2ZkI2 {animation: es1iBGm2ZkI2_s_do 3000ms linear infinite normal forwards}@keyframes es1iBGm2ZkI2_s_do { 0% {stroke-dashoffset: 162.05} 33.333333% {stroke-dashoffset: 324.1} 100% {stroke-dashoffset: 324.1}} #es1iBGm2ZkI3 {animation: es1iBGm2ZkI3_s_do 3000ms linear infinite normal forwards}@keyframes es1iBGm2ZkI3_s_do { 0% {stroke-dashoffset: 5} 33.333333% {stroke-dashoffset: 5} 43.333333% {stroke-dashoffset: 0} 100% {stroke-dashoffset: 0}} #es1iBGm2ZkI4 {animation: es1iBGm2ZkI4_s_do 3000ms linear infinite normal forwards}@keyframes es1iBGm2ZkI4_s_do { 0% {stroke-dashoffset: 5} 50% {stroke-dashoffset: 5} 56.666667% {stroke-dashoffset: 0} 100% {stroke-dashoffset: 0}} #es1iBGm2ZkI5 {animation: es1iBGm2ZkI5_s_do 3000ms linear infinite normal forwards}@keyframes es1iBGm2ZkI5_s_do { 0% {stroke-dashoffset: 5} 43.333333% {stroke-dashoffset: 5} 50% {stroke-dashoffset: 0} 100% {stroke-dashoffset: 0}} #es1iBGm2ZkI6 {animation: es1iBGm2ZkI6_s_do 3000ms linear infinite normal forwards}@keyframes es1iBGm2ZkI6_s_do { 0% {stroke-dashoffset: 5} 56.666667% {stroke-dashoffset: 5} 63.333333% {stroke-dashoffset: 0} 100% {stroke-dashoffset: 0}} #es1iBGm2ZkI7_ts {animation: es1iBGm2ZkI7_ts__ts 3000ms linear infinite normal forwards}@keyframes es1iBGm2ZkI7_ts__ts { 0% {transform: translate(17.81775px,12.823595px) scale(0.5,0.5)} 33.333333% {transform: translate(17.81775px,12.823595px) scale(0.5,0.5)} 66.666667% {transform: translate(17.81775px,12.823595px) scale(1,1)} 100% {transform: translate(17.81775px,12.823595px) scale(1,1)}}
]]></style>
<path id="es1iBGm2ZkI2" d="M1,50.9532h24.9766h8.3255v-27.0101-17.73964C34.3021,3.33531,31.9689,1,29.0987,1L6.20346,1C3.33323,1,1,3.33531,1,6.20346v44.74974Z" fill="none" stroke="#e11f27" stroke-width="2" stroke-dashoffset="162.05" stroke-dasharray="162.05"/><path id="es1iBGm2ZkI3" d="M9.99121,31.9727h4.99529" fill="none" stroke="#e11f27" stroke-width="2" stroke-linecap="round" stroke-dashoffset="5" stroke-dasharray="5"/><path id="es1iBGm2ZkI4" d="M9.99121,37.9648h4.99529" fill="none" stroke="#e11f27" stroke-width="2" stroke-linecap="round" stroke-dashoffset="5" stroke-dasharray="5"/><path id="es1iBGm2ZkI5" d="M20.9814,31.9727h4.9954" fill="none" stroke="#e11f27" stroke-width="2" stroke-linecap="round" stroke-dashoffset="5" stroke-dasharray="5"/><path id="es1iBGm2ZkI6" d="M20.9814,37.9648h4.9954" fill="none" stroke="#e11f27" stroke-width="2" stroke-linecap="round" stroke-dashoffset="5" stroke-dasharray="5"/><g id="es1iBGm2ZkI7_ts" transform="translate(17.81775,12.823595) scale(0.5,0.5)"><path d="M22.6453,12.8236h-4.8276m0,0v-4.82751m0,4.82751h-4.8275m4.8275,0v4.8275" transform="translate(-17.81775,-12.823595)" fill="none" stroke="#e11f27" stroke-width="2"/></g></svg>

<svg width="36" height="52" viewBox="0 0 36 52" fill="none" xmlns="http://www.w3.org/2000/svg">
<path d="M1 50.9532H25.9766H34.3021V23.9431V6.20346C34.3021 3.33531 31.9689 1 29.0987 1H6.20346C3.33323 1 1 3.33531 1 6.20346V50.9532Z" stroke="#E11F27" stroke-width="2"/>
<path d="M9.99121 31.9727H14.9865" stroke="#E11F27" stroke-width="2" stroke-linecap="round"/>
<path d="M9.99121 37.9648H14.9865" stroke="#E11F27" stroke-width="2" stroke-linecap="round"/>
<path d="M20.9814 31.9727H25.9768" stroke="#E11F27" stroke-width="2" stroke-linecap="round"/>
<path d="M20.9814 37.9648H25.9768" stroke="#E11F27" stroke-width="2" stroke-linecap="round"/>
<path d="M22.6453 12.8236H17.8177M17.8177 12.8236V7.99609M17.8177 12.8236H12.9902M17.8177 12.8236V17.6511" stroke="#E11F27" stroke-width="2"/>
</svg>
